icons/file_type_autohotkey.svg

<svg xmlns="http://www.w3.org/2000/svg" viewBox="0 0 32 32"><defs><linearGradient id="a" x1="54.604" x2="54.604" y1="168.388" y2="194.885" gradientTransform="translate(-38.604 -165.636)" gradientUnits="userSpaceOnUse"><stop offset="0" stop-color="#d8d8d8"/><stop offset="1" stop-color="#a3a3a3"/></linearGradient><linearGradient id="b" x1="68.756" x2="91.638" y1="209.152" y2="209.152" gradientTransform="matrix(.832 0 0 .837 -50.601 -159.449)" gradientUnits="userSpaceOnUse"><stop offset="0" stop-color="#d7d7d7"/><stop offset=".5" stop-color="#e7e7e7"/><stop offset="1" stop-color="#d7d7d7"/></linearGradient></defs><rect width="28" height="26.353" x="2" y="2.824" rx="3.088" ry="3.088" style="fill:url(#a)"/><path d="M26.856 29.181H5.144A3.148 3.148 0 0 1 2 26.037V5.963a3.148 3.148 0 0 1 3.144-3.144h21.712A3.148 3.148 0 0 1 30 5.963v20.074a3.148 3.148 0 0 1-3.144 3.144ZM5.144 2.963a3 3 0 0 0-3 3v20.074a3 3 0 0 0 3 3h21.712a3 3 0 0 0 3-3V5.963a3 3 0 0 0-3-3Z" style="fill:#8d8d8d"/><rect width="23.169" height="21.94" x="4.313" y="4.641" rx="2.571" ry="2.571" style="fill:url(#b)"/><path d="M24.911 26.641H6.884a2.634 2.634 0 0 1-2.631-2.631V7.212a2.634 2.634 0 0 1 2.631-2.631h18.027a2.634 2.634 0 0 1 2.631 2.631v16.8a2.634 2.634 0 0 1-2.631 2.629ZM6.884 4.7a2.514 2.514 0 0 0-2.511 2.512v16.8a2.514 2.514 0 0 0 2.511 2.511h18.027a2.514 2.514 0 0 0 2.511-2.511v-16.8A2.514 2.514 0 0 0 24.911 4.7Z" style="fill:#f8f8f8"/><path d="m6.145 23.9 2.343-6.1h.87l2.5 6.1h-.92l-.712-1.848H7.673L7 23.9ZM7.9 21.4h2.074l-.637-1.7q-.291-.77-.433-1.265a7.776 7.776 0 0 1-.328 1.165ZM13.607 23.9v-6.1h.807v2.5h3.171v-2.5h.807v6.1h-.807v-2.879h-3.17V23.9ZM20.478 23.9v-6.1h.807v3.025l3.03-3.025h1.094l-2.559 2.467 2.672 3.633h-1.066l-2.172-3.088-1 .974V23.9Z"/></svg>

<svg xmlns="http://www.w3.org/2000/svg" xmlns:xlink="http://www.w3.org/1999/xlink" viewBox="0 0 32 32"><defs><linearGradient id="a" x1="54.604" y1="168.388" x2="54.604" y2="194.885" gradientTransform="translate(-38.604 -165.636)" gradientUnits="userSpaceOnUse"><stop offset="0" stop-color="#d8d8d8"/><stop offset="1" stop-color="#a3a3a3"/></linearGradient><linearGradient id="b" x1="68.756" y1="209.152" x2="91.638" y2="209.152" gradientTransform="translate(-50.601 -159.449) scale(0.832 0.837)" gradientUnits="userSpaceOnUse"><stop offset="0" stop-color="#d7d7d7"/><stop offset="0.5" stop-color="#e7e7e7"/><stop offset="1" stop-color="#d7d7d7"/></linearGradient></defs><title>file_type_autohotkey</title><rect x="2" y="2.824" width="28" height="26.353" rx="3.088" ry="3.088" style="fill:url(#a)"/><path d="M26.856,29.181H5.144A3.148,3.148,0,0,1,2,26.037V5.963A3.148,3.148,0,0,1,5.144,2.819H26.856A3.148,3.148,0,0,1,30,5.963V26.037A3.148,3.148,0,0,1,26.856,29.181ZM5.144,2.963a3,3,0,0,0-3,3h0V26.037a3,3,0,0,0,3,3H26.856a3,3,0,0,0,3-3V5.963a3,3,0,0,0-3-3Z" style="fill:#8d8d8d"/><rect x="4.313" y="4.641" width="23.169" height="21.94" rx="2.571" ry="2.571" style="fill:url(#b)"/><path d="M24.911,26.641H6.884A2.634,2.634,0,0,1,4.253,24.01V7.212A2.634,2.634,0,0,1,6.884,4.581H24.911a2.634,2.634,0,0,1,2.631,2.631v16.8A2.634,2.634,0,0,1,24.911,26.641ZM6.884,4.7A2.514,2.514,0,0,0,4.373,7.212v16.8a2.514,2.514,0,0,0,2.511,2.511H24.911a2.514,2.514,0,0,0,2.511-2.511V7.212A2.514,2.514,0,0,0,24.911,4.7Z" style="fill:#f8f8f8"/><path d="M6.145,23.9l2.343-6.1h.87l2.5,6.1h-.92l-.712-1.848H7.673L7,23.9ZM7.9,21.4H9.974l-.637-1.7q-.291-.77-.433-1.265A7.776,7.776,0,0,1,8.576,19.6Z"/><path d="M13.607,23.9V17.8h.807v2.5h3.171V17.8h.807v6.1h-.807V21.021h-3.17V23.9Z"/><path d="M20.478,23.9V17.8h.807v3.025l3.03-3.025h1.094L22.85,20.267,25.522,23.9H24.456l-2.172-3.088-1,.974V23.9Z"/></svg>
